X: 1
T: Santa Lucia [F]
O: Italy
Z: John Chambers <jc@trillian.mit.edu>
R: waltz
L: 1/8
M: 3/4
K: F
[| "F"C2 C3 F | "C7"FE E4 | "Bb"B,2 B,3 D | "F"D2 {C}C4 \
| "D7"A,2 D2 C2 | "Gm"C=B,_B,4 | "C7"B,2 A,2 G,2 | "F"D2 C4 |]
|: "F"A2 G2 F2 | "Gm"ED G4 | "Bb"G2 F2 D2 | "F"=B,C F4 \
| "F"(AF) (FC) (CA,) | "Gm"(B,G) G4 |1 "C7"G2 D3 E | G2 "F"F4 :|2 "C7"G2 A3 G | G2 "F"F4 :|
